X:1
T:Natterjack's Reel
D:Flook:Rubai
Z:robin.beech@mcgill.ca
R:reel
M:4/4
L:1/8
K:A
E2cc decB | Acea gece | dBBB Bcde | fffa gecA | E2cc decB |
Acea gece | dBBB Bcdf |1 ecBd cAAF :|2 ecBd cAAf |:
fece a2 (3fff | efcB BBAF | EEEF ABcd- | dBcA Bcdf |
fece a2 (3fff | efcB BBAF | EEEF ABcf | ecBd cAAf :|
